icons/ArrowUpNarrow.svg

<svg width="24" height="24" viewBox="0 0 24 24" fill="none" xmlns="http://www.w3.org/2000/svg">
<path fill-rule="evenodd" clip-rule="evenodd" d="M11.4697,4.46967c0.2929,-0.29289 0.7677,-0.29289 1.0606,0l4,4c0.2929,0.29289 0.2929,0.76777 0,1.06066c-0.2929,0.29289 -0.7677,0.29289 -1.0606,0l-2.7197,-2.71967v12.18934c0,0.4142 -0.3358,0.75 -0.75,0.75c-0.4142,0 -0.75,-0.3358 -0.75,-0.75v-12.18934l-2.71967,2.71967c-0.29289,0.29289 -0.76777,0.29289 -1.06066,0c-0.29289,-0.29289 -0.29289,-0.76777 0,-1.06066z" fill="#002B51"/>
</svg>

<svg width="24" height="24" viewBox="0 0 24 24" fill="none" xmlns="http://www.w3.org/2000/svg">
<path fill-rule="evenodd" clip-rule="evenodd" d="M11.4697 4.46967C11.7626 4.17678 12.2374 4.17678 12.5303 4.46967L16.5303 8.46967C16.8232 8.76256 16.8232 9.23744 16.5303 9.53033C16.2374 9.82322 15.7626 9.82322 15.4697 9.53033L12.75 6.81066V19C12.75 19.4142 12.4142 19.75 12 19.75C11.5858 19.75 11.25 19.4142 11.25 19V6.81066L8.53033 9.53033C8.23744 9.82322 7.76256 9.82322 7.46967 9.53033C7.17678 9.23744 7.17678 8.76256 7.46967 8.46967L11.4697 4.46967Z" fill="#002B51"/>
</svg>
